resources/icons/scalable/status/illustration-appearance-dark-style-square.svg

<svg width="191" height="100" fill="none" version="1.1" viewBox="0 0 191 100" xmlns="http://www.w3.org/2000/svg">
 <g fill="#fff">
  <path d="m16 14c0-1.1046 0.8954-2 2-2h155c1.105 0 2 0.8954 2 2v16c0 1.1046-0.895 2-2 2h-155c-1.1046 0-2-0.8954-2-2v-16z" opacity=".6"/>
  <path d="m36.745 23.714-1.0665 1.0665 2.2575 2.2575c0.7192 0.7027 1.7737-0.375 1.0545-1.0785l-2.2455-2.2455z"/>
  <path d="m32.838 16.75c-1.094 0-2.1432 0.4346-2.9168 1.2082s-1.2082 1.8228-1.2082 2.9168 0.4346 2.1432 1.2082 2.9168 1.8228 1.2082 2.9168 1.2082 2.1432-0.4346 2.9168-1.2082 1.2082-1.8228 1.2082-2.9168-0.4346-2.1432-1.2082-2.9168-1.8228-1.2082-2.9168-1.2082zm0 1.5c0.6962 0 1.3639 0.2766 1.8561 0.7688 0.4923 0.4923 0.7689 1.16 0.7689 1.8562s-0.2766 1.3639-0.7689 1.8562c-0.4922 0.4922-1.1599 0.7688-1.8561 0.7688s-1.3639-0.2766-1.8562-0.7688c-0.4922-0.4923-0.7688-1.16-0.7688-1.8562s0.2766-1.3639 0.7688-1.8562c0.4923-0.4922 1.16-0.7688 1.8562-0.7688z"/>
  <path d="m16 42c0-1.1046 0.8954-2 2-2h99c1.105 0 2 0.8954 2 2v4c0 1.1046-0.895 2-2 2h-99c-1.1046 0-2-0.8954-2-2v-4z" opacity=".5"/>
  <path d="m16 54c0-1.1046 0.8954-2 2-2h155c1.105 0 2 0.8954 2 2v4c0 1.1046-0.895 2-2 2h-155c-1.1046 0-2-0.8954-2-2v-4z" opacity=".5"/>
  <path d="m71 70c0-1.1046 0.8954-2 2-2h44c1.105 0 2 0.8954 2 2v16c0 1.1046-0.895 2-2 2h-44c-1.1046 0-2-0.8954-2-2v-16z" opacity=".6"/>
  <path d="m127 70c0-1.1046 0.895-2 2-2h44c1.105 0 2 0.8954 2 2v16c0 1.1046-0.895 2-2 2h-44c-1.105 0-2-0.8954-2-2v-16z" opacity=".8"/>
 </g>
</svg>

<svg width="191" height="100" viewBox="0 0 191 100" fill="none" xmlns="http://www.w3.org/2000/svg">
<path opacity="0.4" d="M16 14C16 12.8954 16.8954 12 18 12H173C174.105 12 175 12.8954 175 14V30C175 31.1046 174.105 32 173 32H18C16.8954 32 16 31.1046 16 30V14Z" fill="white"/>
<path d="M36.7454 23.7139L35.6789 24.7804L37.9364 27.0379C38.6556 27.7406 39.7101 26.6629 38.9909 25.9594L36.7454 23.7139Z" fill="white"/>
<path d="M32.8379 16.75C31.7439 16.75 30.6947 17.1846 29.9211 17.9582C29.1475 18.7318 28.7129 19.781 28.7129 20.875C28.7129 21.969 29.1475 23.0182 29.9211 23.7918C30.6947 24.5654 31.7439 25 32.8379 25C33.9319 25 34.9811 24.5654 35.7547 23.7918C36.5283 23.0182 36.9629 21.969 36.9629 20.875C36.9629 19.781 36.5283 18.7318 35.7547 17.9582C34.9811 17.1846 33.9319 16.75 32.8379 16.75ZM32.8379 18.25C33.5341 18.25 34.2018 18.5266 34.694 19.0188C35.1863 19.5111 35.4629 20.1788 35.4629 20.875C35.4629 21.5712 35.1863 22.2389 34.694 22.7312C34.2018 23.2234 33.5341 23.5 32.8379 23.5C32.1417 23.5 31.474 23.2234 30.9817 22.7312C30.4895 22.2389 30.2129 21.5712 30.2129 20.875C30.2129 20.1788 30.4895 19.5111 30.9817 19.0188C31.474 18.5266 32.1417 18.25 32.8379 18.25Z" fill="white"/>
<path opacity="0.2" d="M16 42C16 40.8954 16.8954 40 18 40H117C118.105 40 119 40.8954 119 42V46C119 47.1046 118.105 48 117 48H18C16.8954 48 16 47.1046 16 46V42Z" fill="white"/>
<path opacity="0.2" d="M16 54C16 52.8954 16.8954 52 18 52H173C174.105 52 175 52.8954 175 54V58C175 59.1046 174.105 60 173 60H18C16.8954 60 16 59.1046 16 58V54Z" fill="white"/>
<path opacity="0.4" d="M71 70C71 68.8954 71.8954 68 73 68H117C118.105 68 119 68.8954 119 70V86C119 87.1046 118.105 88 117 88H73C71.8954 88 71 87.1046 71 86V70Z" fill="white"/>
<path opacity="0.6" d="M127 70C127 68.8954 127.895 68 129 68H173C174.105 68 175 68.8954 175 70V86C175 87.1046 174.105 88 173 88H129C127.895 88 127 87.1046 127 86V70Z" fill="white"/>
</svg>
